X: 1
T: Buttered Peas
T: Pwt-ar-y-Bys
C: Trad
R: Polka
M: 2/4
L: 1/8
K: G
Z: ABC transcription by Verge Roller
r: 32
|: d/c/ | "G"Bd d/c/B | "C" ce ed/c/ | "G" Bd dc/B/ | "D" cA A d/c/ |
"G" Bd d/c/B | "C" ce ed/c/ | "G" B/c/d/B/ "D" A/B/c/A/ | "G" BG G :|
|: d/c/ | "G" Bd "D" de/f/ | "G" gf g2 | "Bm" Bd "G" dc/B/ | "D" cA A d/c/ |
"G" Bd "D" de/f/ | "G" gf g2 | "G" B/c/d/B/ "D" A/B/c/A/ | "G" BG G :|
